X: 10948
T: Drummond Castle
R: jig
M: 6/8
K: Adorian
|:A2A a2a|age g2B|c2d edc|B/c/dg dBG|
A2A a2a|age g3|e/f/ge deg|1 edB A2G:|2 edB A2B||
|:c2d edc|d2e ged|c2c edc|B/c/dg dBG|
c2d edc|deg a3|e/f/ge deg|1 edB A2B:|2 edB A2E||

